dist/public/logo/call.svg

<svg width="36" height="36" fill="none" xmlns="http://www.w3.org/2000/svg"><path d="M34.02 24.76c-2.46 0-4.84-.4-7.06-1.12-.7-.24-1.48-.06-2.02.48l-3.14 3.94c-5.66-2.7-10.96-7.8-13.78-13.66l3.9-3.32c.54-.56.7-1.34.48-2.04-.74-2.22-1.12-4.6-1.12-7.06C11.28.9 10.38 0 9.3 0H2.38C1.3 0 0 .48 0 1.98 0 20.56 15.46 36 34.02 36c1.42 0 1.98-1.26 1.98-2.36v-6.9c0-1.08-.9-1.98-1.98-1.98z" fill="#000"/></svg>

<svg width="36" height="36" viewBox="0 0 36 36" fill="none" xmlns="http://www.w3.org/2000/svg">
<path d="M34.02 24.76C31.56 24.76 29.18 24.36 26.96 23.64C26.26 23.4 25.48 23.58 24.94 24.12L21.8 28.06C16.14 25.36 10.84 20.26 8.02 14.4L11.92 11.08C12.46 10.52 12.62 9.74 12.4 9.04C11.66 6.82 11.28 4.44 11.28 1.98C11.28 0.9 10.38 0 9.3 0H2.38C1.3 0 0 0.48 0 1.98C0 20.56 15.46 36 34.02 36C35.44 36 36 34.74 36 33.64V26.74C36 25.66 35.1 24.76 34.02 24.76Z" fill="black"/>
</svg>
